source/images/bg-hand.svg

<svg width="18" height="18" viewBox="0 0 18 18" fill="none" xmlns="http://www.w3.org/2000/svg">
<path d="M14.4644 0.0271918C14.4169 0.00901281 14.3677 3.7405e-08 14.3182 3.7405e-08C14.2284 -3.83148e-05 14.1388 0.0294162 14.0657 0.0870979C14.0513 0.0986803 12.542 1.27283 11.3315 1.65555C11.0439 1.74625 10.6388 1.85932 10.1737 1.98952C7.95329 2.61037 6.06444 3.17526 5.43804 3.80166C4.73945 4.50025 4.28072 7.25332 4.13295 8.26686C1.79442 8.64075 0 10.6486 0 13.0909C0 15.7979 2.20207 18 4.90908 18C7.6161 18 9.81817 15.8155 9.81817 13.1085C9.81817 12.5138 9.70445 11.9338 9.49221 11.3768C10.2203 10.9682 10.9681 10.6846 11.4937 10.6344C11.6079 10.6236 11.7166 10.6188 11.8236 10.6136C12.4141 10.586 13.0253 10.5577 14.1496 9.73989C14.7536 9.30083 15.1012 8.72755 15.4695 8.12112C15.9745 7.28696 16.4979 6.42484 17.7962 5.67218C17.9225 5.59908 18 5.46404 18 5.31823C18 1.42544 14.4996 0.0407684 14.4644 0.0271918ZM4.90908 17.1994C2.65347 17.1994 0.818168 15.3641 0.818168 13.1085C0.818168 10.8529 2.65351 9.01757 4.90908 9.01757C5.35508 9.01757 5.7956 9.09787 6.21509 9.23913C5.88879 9.4944 5.56345 9.79937 5.29775 10.1259C5.25176 9.95025 5.09927 9.81817 4.90908 9.81817C4.68296 9.81817 4.49998 10.0011 4.49998 10.2273V10.657C3.80788 10.7573 3.27271 11.3488 3.27271 12.0682C3.27271 12.8576 3.91511 13.5 4.70451 13.5H5.11362C5.45161 13.5 5.72725 13.7752 5.72725 14.1136C5.72725 14.452 5.45158 14.7273 5.11362 14.7273H3.68181C3.45569 14.7273 3.27271 14.9102 3.27271 15.1364C3.27271 15.3625 3.45569 15.5455 3.68181 15.5455H4.49998V15.9546C4.49998 16.1807 4.68296 16.3637 4.90908 16.3637C5.13521 16.3637 5.31819 16.1807 5.31819 15.9546V15.5248C6.01029 15.4245 6.54546 14.8331 6.54546 14.1137C6.54546 13.3243 5.90306 12.6819 5.11365 12.6819H4.70455C4.36655 12.6819 4.09092 12.4066 4.09092 12.0682C4.09092 11.7298 4.36659 11.4546 4.70455 11.4546H4.72354C4.73389 11.7215 4.83575 11.9597 5.02897 12.1529C5.40371 12.5272 5.87752 12.6779 6.3833 12.6779C7.19488 12.6779 8.08787 12.2887 8.78599 11.8142C8.92763 12.233 9.00004 12.6666 9.00004 13.1085C9 15.3641 7.16469 17.1994 4.90908 17.1994ZM14.7696 7.69683C14.4316 8.25413 14.14 8.73552 13.6686 9.07832C12.7425 9.7519 12.3198 9.77145 11.7853 9.79623C11.6655 9.80183 11.544 9.80781 11.4154 9.8202C10.5868 9.8989 9.38671 10.4083 8.35841 11.1178C7.44512 11.7494 6.19388 12.1609 5.60744 11.5744C5.5595 11.5265 5.51954 11.4617 5.54911 11.3151C5.67935 10.6743 6.87145 9.64002 7.51703 9.37915C8.29286 9.06593 10.1458 8.21781 10.6052 7.11119C10.6571 6.98536 10.6435 6.84112 10.5676 6.72767C10.2952 6.31857 9.86852 6.13202 9.55772 5.99537C9.46264 5.95384 9.33719 5.90547 9.33639 5.90348C9.22053 5.73531 8.99682 5.68016 8.81702 5.77044C8.56773 5.89508 7.90217 6.08684 7.66645 6.15035C7.55059 6.18153 7.45391 6.26223 7.40278 6.37088L6.42131 8.44796C5.95361 8.2965 5.46546 8.20956 4.97075 8.20327C5.20048 6.71367 5.62915 4.76756 6.0165 4.38017C6.54224 3.85482 8.95363 3.18047 10.3943 2.77735C10.8689 2.64431 11.2836 2.52845 11.5776 2.43537C12.6642 2.09257 13.8963 1.23207 14.3709 0.881718C15.0245 1.20411 17.0659 2.42221 17.177 5.08968C15.8459 5.92185 15.2514 6.90183 14.7696 7.69683ZM7.25256 8.60328L8.06275 6.8894C8.28327 6.82669 8.65241 6.71682 8.94006 6.60655C9.02715 6.6561 9.12464 6.69883 9.22931 6.74439C9.3979 6.81872 9.58326 6.89979 9.72708 7.01324C9.30041 7.61134 8.17781 8.22536 7.25256 8.60328Z" fill="#3634E3"/>
</svg>

<svg width="18" height="18" fill="none" xmlns="http://www.w3.org/2000/svg"><path d="M14.464.027a.408.408 0 00-.398.06C14.05.1 12.542 1.273 11.33 1.656c-.287.09-.692.203-1.157.334-2.22.62-4.11 1.185-4.736 1.812-.699.698-1.157 3.451-1.305 4.465C1.794 8.64 0 10.649 0 13.09A4.914 4.914 0 004.91 18c2.706 0 4.908-2.184 4.908-4.892 0-.594-.114-1.174-.326-1.731.728-.409 1.476-.692 2.002-.743.114-.01.223-.015.33-.02.59-.028 1.201-.056 2.326-.874.604-.44.951-1.012 1.32-1.619.505-.834 1.028-1.696 2.326-2.449A.409.409 0 0018 5.318c0-3.893-3.5-5.277-3.536-5.29zM4.91 17.2a4.096 4.096 0 01-4.09-4.09 4.096 4.096 0 014.09-4.091c.446 0 .887.08 1.306.221a5.83 5.83 0 00-.917.887.403.403 0 00-.389-.308.409.409 0 00-.409.41v.429a1.43 1.43 0 00-1.227 1.411c0 .79.642 1.432 1.432 1.432h.409a.615.615 0 010 1.227H3.682a.409.409 0 100 .819H4.5v.409a.409.409 0 10.818 0v-.43a1.43 1.43 0 001.227-1.411c0-.79-.642-1.432-1.431-1.432h-.41a.615.615 0 010-1.227h.02c.01.267.112.505.305.698.375.374.849.525 1.354.525.812 0 1.705-.39 2.403-.864.142.419.214.853.214 1.294A4.096 4.096 0 014.91 17.2zm9.86-9.502c-.337.557-.629 1.039-1.1 1.381-.927.674-1.35.693-1.884.718-.12.006-.241.012-.37.024-.828.079-2.028.588-3.057 1.298-.913.631-2.164 1.043-2.75.456-.048-.047-.088-.112-.059-.259.13-.64 1.322-1.675 1.968-1.936.776-.313 2.629-1.161 3.088-2.268a.41.41 0 00-.037-.383c-.273-.41-.7-.596-1.01-.733-.095-.041-.22-.09-.222-.092a.41.41 0 00-.519-.133c-.25.125-.915.317-1.15.38a.41.41 0 00-.264.22L6.42 8.449a4.913 4.913 0 00-1.45-.245c.23-1.49.658-3.435 1.045-3.823.526-.525 2.938-1.2 4.378-1.603.475-.133.89-.249 1.184-.342 1.086-.342 2.318-1.203 2.793-1.553.653.322 2.695 1.54 2.806 4.208-1.331.832-1.926 1.812-2.407 2.607zm-7.516.906l.81-1.714c.22-.062.59-.172.877-.282.087.05.185.092.29.137.168.075.353.156.497.27-.427.597-1.55 1.211-2.474 1.59z" fill="#3634E3"/></svg>
